javascript.info/2-ui/99-ui-misc/02-selection-range/selection-direction-forward.svg

<?xml version="1.0" encoding="UTF-8"?>
<svg width="563px" height="128px" viewBox="0 0 563 128" version="1.1" xmlns="http://www.w3.org/2000/svg" xmlns:xlink="http://www.w3.org/1999/xlink">
    <!-- Generator: sketchtool 55.2 (78181) - https://sketchapp.com -->
    <title>selection-direction-forward.svg</title>
    <desc>Created with sketchtool.</desc>
    <defs>
        <linearGradient x1="0%" y1="50%" x2="100%" y2="50%" id="linearGradient-1">
            <stop stop-color="#F2F2F2" offset="0%"></stop>
            <stop stop-color="#808080" offset="100%"></stop>
        </linearGradient>
        <rect id="path-2" x="47" y="72" width="262" height="21"></rect>
        <mask id="mask-3" maskContentUnits="userSpaceOnUse" maskUnits="objectBoundingBox" x="0" y="0" width="262" height="21" fill="white">
            <use xlink:href="#path-2"></use>
        </mask>
        <polygon id="path-4" points="7.84066209 8.51607073 12.4865478 6.86493774 1.13686838e-13 0 3.64025044 13.7764227 6.3662792 9.66798489 9.63003598 13.8454031 11.1044189 12.6934889"></polygon>
        <filter x="-52.6%" y="-43.3%" width="212.1%" height="203.6%" filterUnits="objectBoundingBox" id="filter-5">
            <feMorphology radius="1" operator="dilate" in="SourceAlpha" result="shadowSpreadOuter1"></feMorphology>
            <feOffset dx="0" dy="1" in="shadowSpreadOuter1" result="shadowOffsetOuter1"></feOffset>
            <feGaussianBlur stdDeviation="1.5" in="shadowOffsetOuter1" result="shadowBlurOuter1"></feGaussianBlur>
            <feComposite in="shadowBlurOuter1" in2="SourceAlpha" operator="out" result="shadowBlurOuter1"></feComposite>
            <feColorMatrix values="0 0 0 0 0   0 0 0 0 0   0 0 0 0 0  0 0 0 0.2 0" type="matrix" in="shadowBlurOuter1"></feColorMatrix>
        </filter>
    </defs>
    <g id="misc" stroke="none" stroke-width="1" fill="none" fill-rule="evenodd">
        <g id="selection-direction-forward.svg">
            <rect id="Rectangle" fill="url(#linearGradient-1)" opacity="0.200000003" x="47" y="100" width="262" height="16"></rect>
            <text id="&lt;p&gt;Example:-&lt;i&gt;itali" font-family="PTMono-Regular, PT Mono" font-size="18" font-weight="normal" letter-spacing="1" fill="#8A704D">
                <tspan x="13" y="89">&lt;p&gt;Example: &lt;i&gt;italic&lt;/i&gt; and &lt;b&gt;bold&lt;/b&gt;&lt;/p&gt;</tspan>
            </text>
            <path id="Line-Copy-3" d="M308.675044,59.162478 L308.675044,59.5 L308,59.5 L296,65.5 L296,59.5 L47,59.5 L47,57.5 L296,57.5 L296,51.5 L308,57.5 L308.675044,57.5 L308.675044,57.837522 L310,58.5 L308.675044,59.162478 Z" fill="#EE6B47" fill-rule="nonzero"></path>
            <text id="anchor" font-family="PTMono-Regular, PT Mono" font-size="16" font-weight="normal" fill="#000000">
                <tspan x="18.2" y="42">anchor</tspan>
            </text>
            <text id="focus" font-family="PTMono-Regular, PT Mono" font-size="16" font-weight="normal" fill="#000000">
                <tspan x="283" y="42">focus</tspan>
            </text>
            <use id="Rectangle" stroke="#0000FF" mask="url(#mask-3)" stroke-width="2" fill-opacity="0.1" fill="#0000FF" stroke-dasharray="5,2" xlink:href="#path-2"></use>
            <g id="Cursor-/-Default-White" transform="translate(306.000000, 100.000000)">
                <g id="Rectangle-237">
                    <use fill="black" fill-opacity="1" filter="url(#filter-5)" xlink:href="#path-4"></use>
                    <path stroke-opacity="0.8" stroke="#000000" stroke-width="1" d="M8.6617598,8.75489325 L11.806255,12.7796636 L9.54386134,14.5472392 L6.39936616,10.5224689 L3.44128728,14.9806328 L-0.781456351,-1.00021852 L13.7031213,6.96320943 L8.6617598,8.75489325 Z" fill="#FFFFFF" fill-rule="evenodd"></path>
                </g>
            </g>
        </g>
    </g>
</svg>

<svg xmlns="http://www.w3.org/2000/svg" xmlns:xlink="http://www.w3.org/1999/xlink" width="563" height="128" viewBox="0 0 563 128"><defs><style>@import url(https://fonts.googleapis.com/css?family=Open+Sans:bold,italic,bolditalic%7CPT+Mono);@font-face{font-family:&apos;PT Mono&apos;;font-weight:700;font-style:normal;src:local(&apos;PT MonoBold&apos;),url(/pack/modules/styles/blocks/font/PTMonoBold.woff2) format(&apos;woff2&apos;),url(/pack/modules/styles/blocks/font/PTMonoBold.woff) format(&apos;woff&apos;),url(/pack/modules/styles/blocks/font/PTMonoBold.ttf) format(&apos;truetype&apos;)}</style></defs><defs><path id="path-2" d="M47 72h262v21H47z"/><path id="path-4" d="M7.84 8.516l4.647-1.651L0 0l3.64 13.776 2.726-4.108 3.264 4.177 1.474-1.152z"/><linearGradient id="linearGradient-1" x1="0%" x2="100%" y1="50%" y2="50%"><stop offset="0%" stop-color="#F2F2F2"/><stop offset="100%" stop-color="gray"/></linearGradient><filter id="filter-5" width="212.1%" height="203.6%" x="-52.6%" y="-43.3%" filterUnits="objectBoundingBox"><feMorphology in="SourceAlpha" operator="dilate" radius="1" result="shadowSpreadOuter1"/><feOffset dy="1" in="shadowSpreadOuter1" result="shadowOffsetOuter1"/><feGaussianBlur in="shadowOffsetOuter1" result="shadowBlurOuter1" stdDeviation="1.5"/><feComposite in="shadowBlurOuter1" in2="SourceAlpha" operator="out" result="shadowBlurOuter1"/><feColorMatrix in="shadowBlurOuter1" values="0 0 0 0 0 0 0 0 0 0 0 0 0 0 0 0 0 0 0.2 0"/></filter><mask id="mask-3" width="262" height="21" x="0" y="0" fill="#fff" maskContentUnits="userSpaceOnUse" maskUnits="objectBoundingBox"><use xlink:href="#path-2"/></mask></defs><g id="misc" fill="none" fill-rule="evenodd" stroke="none" stroke-width="1"><g id="selection-direction-forward.svg"><path id="Rectangle" fill="url(#linearGradient-1)" d="M47 100h262v16H47z" opacity=".2"/><text id="&lt;p&gt;Example:-&lt;i&gt;itali" fill="#8A704D" font-family="PTMono-Regular, PT Mono" font-size="18" font-weight="normal" letter-spacing="1"><tspan x="13" y="89">&lt;p&gt;Example: &lt;i&gt;italic&lt;/i&gt; and &lt;b&gt;bold&lt;/b&gt;&lt;/p&gt;</tspan></text><path id="Line-Copy-3" fill="#EE6B47" fill-rule="nonzero" d="M308.675 59.162v.338H308l-12 6v-6H47v-2h249v-6l12 6h.675v.338L310 58.5l-1.325.662z"/><text id="anchor" fill="#000" font-family="PTMono-Regular, PT Mono" font-size="16" font-weight="normal"><tspan x="18.2" y="42">anchor</tspan></text><text id="focus" fill="#000" font-family="PTMono-Regular, PT Mono" font-size="16" font-weight="normal"><tspan x="283" y="42">focus</tspan></text><use id="Rectangle" fill="#00F" fill-opacity=".1" stroke="#00F" stroke-dasharray="5,2" stroke-width="2" mask="url(#mask-3)" xlink:href="#path-2"/><g id="Cursor-/-Default-White" transform="translate(306 100)"><g id="Rectangle-237"><use fill="#000" filter="url(#filter-5)" xlink:href="#path-4"/><path fill="#FFF" stroke="#000" stroke-opacity=".8" d="M8.662 8.755l3.144 4.025-2.262 1.767-3.145-4.025-2.958 4.459L-.78-1l14.484 7.963-5.041 1.792z"/></g></g></g></g></svg>
